icons/1_Primary/Fansly.svg

<svg width="1024" height="1024" viewBox="0 0 1024 1024" fill="none" xmlns="http://www.w3.org/2000/svg">
<g clip-path="url(#clip0_2_2160)">
<path d="M512 1024C794.77 1024 1024 794.77 1024 512C1024 229.23 794.77 0 512 0C229.23 0 0 229.23 0 512C0 794.77 229.23 1024 512 1024Z" fill="#9ABEFF"/>
<path d="M776.49 343.24C752.85 308.78 712.86 287.38 671.49 284H651C620.37 287.46 590.18 299.06 567.4 320.21C498.85 387.05 431.76 455.4 363.13 522.21C347.223 506.543 331.383 490.827 315.61 475.06C298.85 458.38 289.94 433.65 294.86 410.17C301.57 375.3 337.49 349.1 372.86 354.96C406.95 358.58 425.26 391.29 449.86 410.96L499.19 364C468.47 324.78 427.02 286.95 374.58 284H361.72C328.16 285.42 294.06 296 268.88 318.95C239.75 344.38 226 382.95 221.77 420.46V432.38C223.54 464.756 237.05 495.377 259.77 518.51C327.71 587.43 396.35 655.65 464.94 723.88C477.84 736.57 489.76 750.65 505.5 760.01H517.22C534.55 754.01 545.22 738.17 558.27 726.33C608.76 674.82 661.45 625.48 710.71 572.83L562.86 424.44C579.54 407.72 596.06 390.79 613.02 374.44C626.81 360.77 646.02 352.88 665.58 354.44C705.25 354.97 738.08 395.53 730.8 434.51C726.53 468.36 694.67 486.74 674.8 511.11L724.8 558.72C741.37 545 757 528.26 771.12 512C810.62 465.49 812.62 392.3 776.49 343.24ZM582.31 564C588.94 606.23 548.66 647.77 506.15 642C464.65 640.54 434.34 595.13 444.72 555.91C450.72 530.08 472.95 509.13 499.11 504.69C503.806 503.637 508.608 503.134 513.42 503.19C546.81 503.57 578.85 530 582.31 564ZM553.13 553C557.544 562.248 558.656 572.729 556.281 582.697C553.905 592.665 548.185 601.518 540.075 607.781C531.964 614.044 521.952 617.339 511.708 617.116C501.463 616.893 491.604 613.167 483.773 606.558C475.942 599.948 470.612 590.855 468.672 580.793C466.732 570.731 468.298 560.308 473.11 551.261C477.922 542.214 485.688 535.088 495.116 531.072C504.543 527.056 515.062 526.392 524.92 529.19C523.676 531.746 523.017 534.547 522.99 537.39C522.978 540.898 523.934 544.341 525.752 547.341C527.57 550.341 530.18 552.782 533.295 554.395C536.41 556.008 539.909 556.732 543.409 556.486C546.908 556.239 550.272 555.033 553.13 553Z" fill="white"/>
</g>
<defs>
<clipPath id="clip0_2_2160">
<rect width="1024" height="1024" fill="white"/>
</clipPath>
</defs>
</svg>

<svg xmlns="http://www.w3.org/2000/svg" viewBox="0 0 1024 1024">
   <circle cx="512" cy="512" r="512" style="fill:#2799f6"/>
   <path d="M776.49 343.24c-23.64-34.46-63.63-55.86-105-59.24H651c-30.63 3.46-60.82 15.06-83.6 36.21-68.55 66.84-135.64 135.19-204.27 202q-23.86-23.5-47.52-47.15c-16.76-16.68-25.67-41.41-20.75-64.89 6.71-34.87 42.63-61.07 78-55.21 34.09 3.62 52.4 36.33 77 56L499.19 364c-30.72-39.22-72.17-77.05-124.61-80h-12.86c-33.56 1.42-67.66 12-92.84 34.95-29.13 25.43-42.88 64-47.11 101.51v11.92a133.3 133.3 0 0 0 38 86.13c67.94 68.92 136.58 137.14 205.17 205.37 12.9 12.69 24.82 26.77 40.56 36.13h11.72c17.33-6 28-21.84 41.05-33.68 50.49-51.51 103.18-100.85 152.44-153.5L562.86 424.44c16.68-16.72 33.2-33.65 50.16-50 13.79-13.67 33-21.56 52.56-20 39.67.53 72.5 41.09 65.22 80.07-4.27 33.85-36.13 52.23-56 76.6l50 47.61C741.37 545 757 528.26 771.12 512c39.5-46.51 41.5-119.7 5.37-168.76ZM582.31 564c6.63 42.23-33.65 83.77-76.16 78-41.5-1.46-71.81-46.87-61.43-86.09 6-25.83 28.23-46.78 54.39-51.22a62.13 62.13 0 0 1 14.31-1.5c33.39.38 65.43 26.81 68.89 60.81Zm-29.18-11a44.82 44.82 0 1 1-28.21-23.81 19.15 19.15 0 0 0-1.93 8.2A19.08 19.08 0 0 0 553.13 553Z" style="fill:#fff"/>
</svg>
